static/logos/adidas-wordmark-white.svg

<svg width="96" height="64" viewBox="0 0 96 64" fill="none" xmlns="http://www.w3.org/2000/svg">
<g clip-path="url(#clip0_1204_181)">
<path d="M87.869 63.9436C83.4439 63.9436 80.8197 61.679 80.6188 58.4177H84.8497C84.8497 59.5049 85.4521 60.952 88.0699 61.0419C89.8841 61.0419 90.8881 59.955 90.8881 59.1378C90.6872 57.8705 89.0739 57.7806 87.4672 57.5037C85.653 57.2406 84.2472 56.8735 83.2364 56.4234C81.8306 55.6964 81.0203 54.1522 81.0203 52.525C81.0203 49.6233 83.4439 47.3587 87.6681 47.3587C91.6984 47.3587 94.3159 49.4435 94.5095 52.6149H90.4866C90.4866 51.8043 90.2857 50.4405 87.8687 50.4405C86.2554 50.4405 85.2515 50.7105 85.0506 51.8876C85.0506 53.522 88.4714 53.4318 91.089 54.062C93.5056 54.6991 95.1189 56.2364 95.1189 58.4177C95.1189 62.4063 91.8989 63.9436 87.869 63.9436ZM10.7698 37.1831L24.6608 29.1157L32.1116 41.899H13.3873" fill="white"/>
<path d="M39.9805 63.4626V47.3281Z" fill="white"/>
<path d="M39.9805 63.4626V47.3281" stroke="white" stroke-width="4.06493"/>
<path d="M4.3227 55.6342C4.3227 58.1685 6.53841 60.253 8.9481 60.253C11.5726 60.253 13.5808 58.1685 13.5808 55.6342C13.5808 53.1898 11.5726 51.0154 8.9481 51.0154C6.53841 51.0154 4.3227 53.1898 4.3227 55.6342ZM8.7475 63.9716C4.32238 63.9716 0.5 60.253 0.5 55.6342C0.5 51.0154 4.3227 47.387 8.7475 47.387C10.5617 47.387 12.175 47.8441 13.5808 48.8341V47.5668H17.611V63.6045H13.5811V62.6075C12.3762 63.5146 10.5617 63.9716 8.7475 63.9716ZM62.5128 41.8955L43.1861 8.1861L57.0769 0.0288086L81.2371 41.8955M22.8461 55.6342C22.8461 58.1685 24.8615 60.253 27.4787 60.253C29.8884 60.253 32.1114 58.1685 32.1114 55.6342C32.1114 53.1898 29.8884 51.0154 27.4787 51.0154C24.8612 51.0154 22.8461 53.1898 22.8461 55.6342ZM27.2778 63.9716C22.6451 63.9716 19.0237 60.253 19.0237 55.6342C19.0237 51.0154 22.6451 47.387 27.2778 47.387C29.0851 47.387 30.6987 47.8441 32.1114 48.8341V42.0409H36.1347V63.6045H32.1111V62.6075C30.6984 63.5146 29.0854 63.9716 27.2778 63.9716ZM27.0794 22.7754L41.171 14.8052L56.6757 41.8946H41.9747V45.8832H37.9511V41.8946M92.5084 46.0087C91.4975 46.0087 90.4936 45.1016 90.4936 44.0144C90.4936 42.9272 91.4975 42.0201 92.5084 42.0201C93.7132 42.0201 94.5238 42.9275 94.5238 44.0144C94.5238 45.1013 93.7132 46.0087 92.5084 46.0087ZM92.5084 42.2974C91.4975 42.2974 90.8951 43.1073 90.8951 44.0144C90.8951 44.9215 91.4975 45.7387 92.5084 45.7387C93.5126 45.7387 94.1151 44.9218 94.1151 44.0144C94.1151 43.107 93.5126 42.2974 92.5084 42.2974Z" fill="white"/>
<path d="M92.9241 45.1081L92.5223 44.201H92.1208V45.1081H91.8161V42.9338H92.7232C92.9241 42.9338 93.3256 43.211 93.3256 43.5709C93.3256 43.9307 93.1247 44.1112 92.9241 44.201L93.3256 45.1081M92.5223 43.211H92.1208V43.9311H92.5223C92.9241 43.9311 92.9241 43.8412 92.9241 43.5709C92.9241 43.3841 92.9241 43.211 92.5223 43.211ZM65.9176 55.6338C65.9176 58.1681 67.9331 60.2526 70.5503 60.2526C72.9669 60.2526 75.176 58.1681 75.176 55.6338C75.176 53.1894 72.9669 51.015 70.5503 51.015C67.9327 51.015 65.9176 53.1894 65.9176 55.6338ZM70.3427 63.9712C65.717 63.9712 62.0953 60.2526 62.0953 55.6338C62.0953 51.015 65.717 47.3866 70.3424 47.3866C72.157 47.3866 73.7702 47.8436 75.176 48.8337V47.5664H79.0053V63.6041H75.1763V62.6071C73.7702 63.5142 72.1573 63.9712 70.3427 63.9712ZM47.4081 55.6338C47.4081 58.1681 49.6239 60.2526 52.0405 60.2526C54.6583 60.2526 56.6731 58.1681 56.6731 55.6338C56.6731 53.1894 54.658 51.015 52.0405 51.015C49.6239 51.015 47.4081 53.1894 47.4081 55.6338ZM56.6731 42.0405H60.6964V63.6041H56.6731V62.6071C55.4614 63.5142 53.8481 63.9712 52.0405 63.9712C47.4081 63.9712 43.5854 60.2526 43.5854 55.6338C43.5854 51.015 47.4081 47.3866 52.0405 47.3866C53.8477 47.3866 55.4614 47.8436 56.6731 48.8337V42.0405Z" fill="white"/>
</g>
<defs>
<clipPath id="clip0_1204_181">
<rect width="94.619" height="64" fill="white" transform="translate(0.5)"/>
</clipPath>
</defs>
</svg>

<svg xmlns="http://www.w3.org/2000/svg" width="96" height="64" fill="none"><g clip-path="url(#a)"><path fill="#fff" d="M87.869 63.944c-4.425 0-7.05-2.265-7.25-5.526h4.23c0 1.087.603 2.534 3.22 2.624 1.815 0 2.82-1.087 2.82-1.904-.202-1.267-1.815-1.357-3.422-1.634-1.814-.263-3.22-.63-4.23-1.08-1.406-.728-2.217-2.272-2.217-3.899 0-2.902 2.424-5.166 6.648-5.166 4.03 0 6.648 2.084 6.841 5.256h-4.022c0-.81-.201-2.175-2.618-2.175-1.614 0-2.618.27-2.818 1.448 0 1.634 3.42 1.544 6.038 2.174 2.417.637 4.03 2.174 4.03 4.356 0 3.988-3.22 5.526-7.25 5.526m-77.1-26.76 13.892-8.068 7.45 12.783H13.388M39.98 63.463V47.328Z"/><path stroke="#fff" stroke-width="4.065" d="M39.98 63.463V47.328"/><path fill="#fff" d="M4.323 55.634c0 2.535 2.215 4.619 4.625 4.619a4.594 4.594 0 0 0 4.633-4.619c0-2.444-2.008-4.619-4.633-4.619-2.41 0-4.625 2.175-4.625 4.62m4.425 8.338C4.322 63.972.5 60.253.5 55.634s3.823-8.247 8.248-8.247c1.814 0 3.427.457 4.833 1.447v-1.267h4.03v16.038h-4.03v-.997c-1.205.907-3.02 1.364-4.833 1.364m53.765-22.077L43.186 8.186 57.076.03l24.161 41.867m-58.39 13.738a4.6 4.6 0 0 0 4.632 4.619c2.41 0 4.632-2.084 4.632-4.619 0-2.444-2.223-4.619-4.632-4.619-2.618 0-4.633 2.175-4.633 4.62m4.43 8.338c-4.632 0-8.253-3.719-8.253-8.338s3.621-8.247 8.254-8.247c1.807 0 3.42.457 4.833 1.447v-6.793h4.024v21.564H32.11v-.997q-2.121 1.362-4.833 1.364m-.198-41.197 14.092-7.97 15.505 27.09H41.975v3.988H37.95v-3.988m54.557 4.114c-1.01 0-2.014-.907-2.014-1.995 0-1.087 1.004-1.994 2.014-1.994 1.205 0 2.016.907 2.016 1.994s-.81 1.995-2.016 1.995m0-3.712c-1.01 0-1.613.81-1.613 1.717s.603 1.725 1.613 1.725c1.005 0 1.607-.817 1.607-1.725 0-.907-.602-1.717-1.607-1.717"/><path fill="#fff" d="m92.924 45.108-.402-.907h-.401v.907h-.305v-2.174h.907c.201 0 .603.277.603.637s-.201.54-.402.63l.402.907m-.804-1.897h-.401v.72h.401c.402 0 .402-.09.402-.36 0-.187 0-.36-.402-.36M65.918 55.634a4.6 4.6 0 0 0 4.632 4.619c2.417 0 4.626-2.085 4.626-4.62 0-2.444-2.21-4.618-4.626-4.618-2.617 0-4.632 2.174-4.632 4.619m4.425 8.337c-4.626 0-8.248-3.718-8.248-8.337s3.622-8.247 8.247-8.247c1.815 0 3.428.457 4.834 1.447v-1.268h3.83v16.038h-3.83v-.997q-2.11 1.362-4.833 1.364m-22.935-8.337c0 2.534 2.216 4.619 4.633 4.619a4.6 4.6 0 0 0 4.632-4.62c0-2.444-2.015-4.618-4.632-4.618-2.417 0-4.633 2.174-4.633 4.619m9.265-13.593h4.023v21.563h-4.023v-.997c-1.212.907-2.825 1.364-4.632 1.364-4.633 0-8.456-3.718-8.456-8.337s3.823-8.247 8.456-8.247c1.807 0 3.42.457 4.632 1.447z"/></g><defs><clipPath id="a"><path fill="#fff" d="M.5 0h94.619v64H.5z"/></clipPath></defs></svg>
